X:1    
T:The Old Woman and her Pig
B:Palmer, Roy, 1998, A Book of British Ballads, Llanerch
S:Sam Bennett
Z:James M Carpenter (Carpenter Collection no 238)
F:http://www.folkinfo.org/songs
M:6/8     %Meter
L:1/8     %
K:F
C |FFF FFG |AAG F2
w:There was an old wo-man to mar-ket did go 
 F |GGG A2 G |F3-F2
w:To pur-chase her-self a pig,*
A |ddd G2 G |c2 c F2 
w: When ta-king the lit-tle por-ker home
F |GGG A2 G | c3-c2
w:He led her an aw-ful  rig.*
c |d2 d G2 G |c2 c A2
w: "Oh, my," was the old wo-man's cry 
 F |FFF GGF |E3-E2
w:She was in a ter-ri-ble plight*
A  |c2 c c2 A |ccc c
w:The pig he won't jump ov-er the stile;
AA |Bdc A2 G |F3-F2 |]
w: I shall ne-ver get home to-night."*